icons/media-playback-start.svg

<?xml version="1.0" encoding="UTF-8" standalone="no"?>
<!-- Created with Inkscape (http://www.inkscape.org/) -->
<svg
   xmlns:dc="http://purl.org/dc/elements/1.1/"
   xmlns:cc="http://creativecommons.org/ns#"
   xmlns:rdf="http://www.w3.org/1999/02/22-rdf-syntax-ns#"
   xmlns:svg="http://www.w3.org/2000/svg"
   xmlns="http://www.w3.org/2000/svg"
   xmlns:sodipodi="http://sodipodi.sourceforge.net/DTD/sodipodi-0.dtd"
   xmlns:inkscape="http://www.inkscape.org/namespaces/inkscape"
   width="128"
   height="128"
   id="svg2"
   version="1.1"
   inkscape:version="0.46+devel"
   sodipodi:docname="media-playback-start.svg"
   inkscape:export-filename="/home/rob/.kde4/share/icons/nmfnms/48x48/actions/media-skip-backward.png"
   inkscape:export-xdpi="33.75"
   inkscape:export-ydpi="33.75"
   sodipodi:version="0.32"
   inkscape:output_extension="org.inkscape.output.svg.inkscape">
  <defs
     id="defs4">
    <inkscape:perspective
       sodipodi:type="inkscape:persp3d"
       inkscape:vp_x="0 : 526.18109 : 1"
       inkscape:vp_y="0 : 1000 : 0"
       inkscape:vp_z="744.09448 : 526.18109 : 1"
       inkscape:persp3d-origin="372.04724 : 350.78739 : 1"
       id="perspective10" />
  </defs>
  <sodipodi:namedview
     id="base"
     pagecolor="#ffffff"
     bordercolor="#666666"
     borderopacity="1.0"
     inkscape:pageopacity="0.0"
     inkscape:pageshadow="2"
     inkscape:zoom="5.75"
     inkscape:cx="43.217391"
     inkscape:cy="64"
     inkscape:document-units="px"
     inkscape:current-layer="layer1"
     showgrid="true"
     inkscape:window-width="1162"
     inkscape:window-height="1084"
     inkscape:window-x="412"
     inkscape:window-y="26"
     inkscape:window-maximized="0">
    <inkscape:grid
       type="xygrid"
       id="grid2816"
       empspacing="4"
       visible="true"
       enabled="true"
       snapvisiblegridlinesonly="true" />
  </sodipodi:namedview>
  <metadata
     id="metadata7">
    <rdf:RDF>
      <cc:Work
         rdf:about="">
        <dc:format>image/svg+xml</dc:format>
        <dc:type
           rdf:resource="http://purl.org/dc/dcmitype/StillImage" />
        <dc:title />
      </cc:Work>
    </rdf:RDF>
  </metadata>
  <g
     inkscape:label="Layer 1"
     inkscape:groupmode="layer"
     id="layer1"
     transform="translate(0,-924.36218)">
    <g
       id="g4172"
       transform="matrix(1.0325183,0,0,1.0325183,-3.2267698e-2,-32.139858)">
      <path
         id="rect2933"
         transform="translate(0,924.36218)"
         d="M 15.25,4 C 4,4 4,12 4,12 1.629752,25.717517 0.33851761,40.792206 0.03125,56 l 16.75,0 c 0.297618,-10.49343 1.205856,-20.864641 2.84375,-30.34375 0,0 -0.01315,-5.90625 8.28125,-5.90625 22.80352,0 66.141529,23.681448 78.34375,36.25 L 124,56 C 112,40 48,4 15.25,4 z M 0.09375,72 C 0.46781011,87.373797 1.7892247,102.47142 4,116 c 0,0 0,8 11.25,8 C 48,124 112,88 124,72 l -17.75,0 c -12.202221,12.568554 -55.54023,36.25 -78.34375,36.25 -8.2944,0 -8.28125,-5.90625 -8.28125,-5.90625 C 18.095723,92.985472 17.154006,82.606365 16.8125,72 z"
         style="opacity:1;fill:#000000;fill-opacity:1;fill-rule:nonzero;stroke:none" />
      <path
         style="opacity:1;fill:#000000;fill-opacity:1;fill-rule:nonzero;stroke:none"
         d="m 38.786775,957.64218 c 16.768,0 49.536001,18.432 55.680005,26.624 2.048,2.048 2.048,6.144 0,8.192 -6.144004,8.19202 -38.912005,26.62402 -55.680005,26.62402 -5.76,0 -5.76,-4.096 -5.76,-4.096 -2.639869,-16.1544 -2.870674,-36.63435 0,-53.24802 0,0 0,-4.096 5.76,-4.096 z"
         id="path2997"
         sodipodi:nodetypes="ccccccc" />
    </g>
  </g>
</svg>

<?xml version="1.0" encoding="UTF-8" standalone="no"?>
<!-- Created with Inkscape (http://www.inkscape.org/) -->

<svg
   xmlns:dc="http://purl.org/dc/elements/1.1/"
   xmlns:cc="http://creativecommons.org/ns#"
   xmlns:rdf="http://www.w3.org/1999/02/22-rdf-syntax-ns#"
   xmlns:svg="http://www.w3.org/2000/svg"
   xmlns="http://www.w3.org/2000/svg"
   xmlns:sodipodi="http://sodipodi.sourceforge.net/DTD/sodipodi-0.dtd"
   xmlns:inkscape="http://www.inkscape.org/namespaces/inkscape"
   width="128"
   height="128"
   id="svg2"
   version="1.1"
   inkscape:version="0.47pre2 r22153"
   sodipodi:docname="media-playback-start.svg"
   inkscape:export-filename="/home/rob/.kde4/share/icons/nmfnms/48x48/actions/media-skip-backward.png"
   inkscape:export-xdpi="33.75"
   inkscape:export-ydpi="33.75">
  <defs
     id="defs4">
    <inkscape:perspective
       sodipodi:type="inkscape:persp3d"
       inkscape:vp_x="0 : 526.18109 : 1"
       inkscape:vp_y="0 : 1000 : 0"
       inkscape:vp_z="744.09448 : 526.18109 : 1"
       inkscape:persp3d-origin="372.04724 : 350.78739 : 1"
       id="perspective10" />
  </defs>
  <sodipodi:namedview
     id="base"
     pagecolor="#ffffff"
     bordercolor="#666666"
     borderopacity="1.0"
     inkscape:pageopacity="0.0"
     inkscape:pageshadow="2"
     inkscape:zoom="5.75"
     inkscape:cx="64"
     inkscape:cy="64"
     inkscape:document-units="px"
     inkscape:current-layer="layer1"
     showgrid="true"
     inkscape:window-width="1162"
     inkscape:window-height="1084"
     inkscape:window-x="412"
     inkscape:window-y="20"
     inkscape:window-maximized="0">
    <inkscape:grid
       type="xygrid"
       id="grid2816"
       empspacing="4"
       visible="true"
       enabled="true"
       snapvisiblegridlinesonly="true" />
  </sodipodi:namedview>
  <metadata
     id="metadata7">
    <rdf:RDF>
      <cc:Work
         rdf:about="">
        <dc:format>image/svg+xml</dc:format>
        <dc:type
           rdf:resource="http://purl.org/dc/dcmitype/StillImage" />
        <dc:title></dc:title>
      </cc:Work>
    </rdf:RDF>
  </metadata>
  <g
     inkscape:label="Layer 1"
     inkscape:groupmode="layer"
     id="layer1"
     transform="translate(0,-924.36218)">
    <path
       style="opacity:0.66000001;fill:#000000;fill-opacity:1;fill-rule:nonzero;stroke:none"
       d="M 15.25 4 C 4 4 4 12 4 12 C 1.629752 25.717517 0.33851761 40.792206 0.03125 56 L 16.78125 56 C 17.078868 45.50657 17.987106 35.135359 19.625 25.65625 C 19.625 25.65625 19.61185 19.75 27.90625 19.75 C 50.70977 19.75 94.047779 43.431448 106.25 56 L 124 56 C 112 40 48 4 15.25 4 z M 0.09375 72 C 0.46781011 87.373797 1.7892247 102.47142 4 116 C 4 116 4 124 15.25 124 C 48 124 112 88 124 72 L 106.25 72 C 94.047779 84.568554 50.70977 108.25 27.90625 108.25 C 19.61185 108.25 19.625 102.34375 19.625 102.34375 C 18.095723 92.985472 17.154006 82.606365 16.8125 72 L 0.09375 72 z "
       transform="translate(0,924.36218)"
       id="rect2933" />
    <path
       sodipodi:nodetypes="ccccccc"
       id="path2997"
       d="m 38.786775,957.64218 c 16.768,0 49.536001,18.432 55.680005,26.624 2.048,2.048 2.048,6.144 0,8.192 -6.144004,8.19202 -38.912005,26.62402 -55.680005,26.62402 -5.76,0 -5.76,-4.096 -5.76,-4.096 -2.639869,-16.1544 -2.870674,-36.63435 0,-53.24802 0,0 0,-4.096 5.76,-4.096 z"
       style="opacity:0.66000001;fill:#000000;fill-opacity:1;fill-rule:nonzero;stroke:none" />
  </g>
</svg>
